templates/main/source/images/globe.svg

<?xml version="1.0" encoding="utf-8"?>
<svg width="16px" height="16px" viewBox="0 0 16 16" version="1.1" xmlns:xlink="http://www.w3.org/1999/xlink" xmlns="http://www.w3.org/2000/svg">
  <desc>Created with Lunacy</desc>
  <path d="M6.64028 15.8849C2.86965 15.2393 0 11.9548 0 8C0 4.04502 2.86995 0.760353 6.64087 0.114983C7.0826 0.0393829 7.5367 0 8 0C8.46463 0 8.92 0.0396092 9.36294 0.115635C13.132 0.762561 16 4.04635 16 8C16 11.9534 13.1323 15.2371 9.36353 15.8843C8.92041 15.9604 8.46483 16 8 16C7.5365 16 7.0822 15.9606 6.64028 15.8849ZM10.063 4.03755C9.64759 4.16038 9.21679 4.24719 8.77419 4.2943L8.77419 1.77829C9.3065 2.50516 9.73591 3.25797 10.063 4.03755ZM7.22581 1.78011L7.22581 4.29516C6.78466 4.24871 6.35522 4.16282 5.94104 4.04113C6.26648 3.26092 6.69438 2.50753 7.22581 1.78011ZM3.64599 2.8947C3.92556 3.10274 4.22051 3.29133 4.52881 3.45841C4.76748 2.89883 5.05264 2.35241 5.38411 1.81937C4.74869 2.08864 4.16337 2.45304 3.64599 2.8947ZM12.3502 2.89147C11.835 2.45228 11.2525 2.08967 10.6203 1.82124C10.9503 2.3521 11.2343 2.89622 11.4723 3.4534C11.7788 3.2867 12.0722 3.09871 12.3502 2.89147ZM11.9816 4.91168C12.4798 4.65169 12.9494 4.34448 13.3845 3.99599C14.0717 4.91863 14.5274 6.02392 14.6655 7.22581L12.3659 7.22581C12.3156 6.43317 12.1873 5.66164 11.9816 4.91168ZM1.33451 7.22581C1.47239 6.02569 1.92691 4.92189 2.61243 4.00007C3.04903 4.34919 3.5203 4.65679 4.02023 4.91686C3.81531 5.6652 3.68753 6.435 3.6373 7.22581L1.33451 7.22581ZM8.77419 5.85096L8.77419 7.22581L10.8215 7.22581C10.7793 6.63783 10.6886 6.06315 10.5492 5.5015C9.98042 5.67748 9.38652 5.79621 8.77419 5.85096ZM7.22581 5.85168C6.61604 5.79774 6.0245 5.68035 5.45784 5.50617C5.31992 6.06634 5.23028 6.63946 5.18856 7.22581L7.22581 7.22581L7.22581 5.85168ZM4.0205 11.0847C3.52077 11.3447 3.04969 11.6521 2.61323 12.001C1.92727 11.079 1.47244 9.97478 1.33451 8.77419L3.63726 8.77419C3.68749 9.56556 3.81537 10.3359 4.0205 11.0847ZM7.22581 10.15L7.22581 8.77419L5.18852 8.77419C5.23025 9.36111 5.31999 9.93478 5.4581 10.4955C6.02468 10.3213 6.61614 10.204 7.22581 10.15ZM8.77419 10.1508C9.38642 10.2055 9.98024 10.3242 10.5489 10.5001C10.6886 9.93796 10.7794 9.36274 10.8216 8.77419L8.77419 8.77419L8.77419 10.1508ZM14.6655 8.77419C14.5274 9.97655 14.0714 11.0822 13.3837 12.0051C12.9487 11.6568 12.4793 11.3498 11.9813 11.0899C12.1873 10.3394 12.3156 9.56738 12.366 8.77419L14.6655 8.77419ZM5.93979 11.9564C6.35435 11.8356 6.78422 11.7504 7.22581 11.7044L7.22581 14.2205C6.69369 13.4921 6.26538 12.7377 5.93979 11.9564ZM8.77419 14.2223L8.77419 11.7052C9.21725 11.7519 9.64847 11.838 10.0642 11.96C9.73703 12.7407 9.30719 13.4945 8.77419 14.2223ZM3.64033 13.1005C4.15896 13.5442 4.74607 13.9102 5.38362 14.1804C5.05119 13.6458 4.76535 13.0976 4.52629 12.5363C4.21682 12.7032 3.92082 12.892 3.64033 13.1005ZM12.3559 13.1037C12.0769 12.896 11.7825 12.7079 11.4748 12.5413C11.2365 13.1002 10.9517 13.6461 10.6208 14.1786C11.2551 13.9092 11.8394 13.5449 12.3559 13.1037Z" id="globe" fill="#8C0014" fill-rule="evenodd" stroke="none" />
</svg>

<svg width="16" height="16" viewBox="0 0 16 16" xmlns:xlink="http://www.w3.org/1999/xlink" xmlns="http://www.w3.org/2000/svg"><path d="M6.64 15.885a8.002 8.002 0 010-15.77 8.052 8.052 0 012.723 0 8.002 8.002 0 010 15.77 8.051 8.051 0 01-2.723 0zm3.423-11.847a7.21 7.21 0 01-1.289.256V1.778c.533.727.962 1.48 1.289 2.26zM7.226 1.78v2.515a7.248 7.248 0 01-1.285-.254c.325-.78.753-1.533 1.285-2.26zm-3.58 1.115c.28.208.575.396.883.563.238-.56.524-1.106.855-1.639a6.74 6.74 0 00-1.738 1.076zm8.704-.004a6.71 6.71 0 00-1.73-1.07c.33.531.614 1.075.852 1.632.307-.166.6-.354.878-.562zm-.368 2.02a8.66 8.66 0 001.402-.915 6.675 6.675 0 011.281 3.23h-2.3a11.473 11.473 0 00-.383-2.314zM1.335 7.227A6.674 6.674 0 012.612 4c.437.35.908.657 1.408.917a11.474 11.474 0 00-.383 2.309H1.335zm7.44-1.375v1.375h2.046a10.165 10.165 0 00-.272-1.724 8.59 8.59 0 01-1.775.349zm-1.55 0a8.59 8.59 0 01-1.767-.345 10.21 10.21 0 00-.27 1.72h2.038V5.852zm-3.204 5.234c-.5.26-.971.567-1.408.916a6.674 6.674 0 01-1.278-3.227h2.302c.05.792.178 1.562.384 2.31zm3.205-.935V8.774H5.189c.041.587.131 1.16.27 1.722a8.59 8.59 0 011.767-.346zm1.548 0a8.588 8.588 0 011.775.35c.14-.562.23-1.137.273-1.726H8.774v1.377zm5.892-1.376a6.674 6.674 0 01-1.282 3.231 8.639 8.639 0 00-1.403-.915c.206-.75.335-1.523.385-2.316h2.3zM5.94 11.956c.414-.12.844-.206 1.286-.252v2.516a11.022 11.022 0 01-1.286-2.264zm2.834 2.266v-2.517c.443.047.874.133 1.29.255-.327.78-.757 1.534-1.29 2.262zM3.64 13.101a6.71 6.71 0 001.744 1.08 12.063 12.063 0 01-.858-1.645 7.27 7.27 0 00-.886.565zm8.716.003a7.281 7.281 0 00-.881-.563 12.07 12.07 0 01-.854 1.638 6.713 6.713 0 001.735-1.075z" id="globe" fill="#8C0014" fill-rule="evenodd" stroke="none"/></svg>
